X:1
T:Title
%%score { ( 1 3 ) | ( 2 4 ) }
L:1/8
M:4/4
K:Bb
V:1 bass nm="Grand Piano"
V:3 bass 
V:2 bass 
V:4 bass 
V:1
 z4 z2[Q:1/4=100] [F,B,D]>[F,CE] | [B,DF]2 [B,DF]2 [B,DF]2 [DFB]2 | B>A A>A A2 G>F | A2 A2 A2 G2 | %4
 [DG]>[DF] [DF]>[DF] [DF]2 [B,D]>[CE] | [DF]2 [DF]2 [DF]2 [DFB]2 | B>A A>A A2 [FB]>[FB] | %7
 [Gc]2 [GB]2 [Fd]2 [Ec]2 |[M:3/4] [DB]6 |[M:1/4] [Fd]>[Fd] |[M:4/4] [^Fd]2 [FA]2 [GB]2 [Ac]2 | %11
 [GB]6 z2 | [=Ec]2 G2 A2 B2 | c6 z2 | [Fd]2 [Fd]2 [FB]2 [FG]>[FG] | [Ge]2 [Ge]2 [Gc]2 [GB]>[GB] | %16
 B f3 d2 c2 |[M:3/4] B6 |] %18
V:2
 z4 z2 B,,>B,, | B,,2 B,,2 B,,2 B,,2 | [F,DF]>[F,CE] [F,CE]>[F,CE] [F,CE]2 [F,B,E]>[F,A,E] | %3
 [F,CE]2 [F,CE]2 [F,CE]2 [F,A,E]2 | [B,,B,]>[B,,B,] [B,,B,]>[B,,B,] [B,,B,]2 [B,,F,]>[B,,F,] | %5
 [B,,B,]2 [B,,B,]2 [B,,B,]2 B,,2 | [F,DF]>[F,CF] [F,CF]>[F,CF] [F,CF]2 [D,B,]>[D,B,] | %7
 [E,B,]2 [=E,B,]2 [F,B,]2 [F,A,]2 |[M:3/4] [B,,B,]6 |[M:1/4] [B,,B,]>[B,,B,] | %10
[M:4/4] [D,A,]2 [D,D]2 [G,D]2 [^F,D]2 | [G,D]>G, G,>G, G,2 [C,C]>[C,C] | %12
 [C,G,]2[K:treble] [B,C=E]2 [A,CF]2[K:bass] [G,CE]2 | %13
 [F,A,E]>[F,A,] [F,A,]>[F,A,] [F,A,]2 [F,A,E]>[F,A,E] | [B,,B,]2 [B,,B,]2 [D,B,]2 [G,=B,]>[G,B,] | %15
 [C,C]2 [C,C]2 [E,C]2 [=E,_D]>[E,D] | [F,DF] [F,DF]3 [F,B,F]2 [F,A,E]2 | %17
[M:3/4] z z/ F,/ G,>G, F,2 |] %18
V:3
 x8 | x8 | x8 | x8 | x8 | x8 | x8 | x8 |[M:3/4] x6 |[M:1/4] x2 |[M:4/4] x8 | %11
 z z/ D/ D>D D2 [=Ec]>[Ec] | x8 | z z/ E/ E>E E2 F>F | x8 | x8 | x8 |[M:3/4] [B,D]>D E>E D2 |] %18
V:4
 x8 | x8 | x8 | x8 | x8 | x8 | x8 | x8 |[M:3/4] x6 |[M:1/4] x2 |[M:4/4] x8 | x8 | %12
 x2[K:treble] x4[K:bass] x2 | x8 | x8 | x8 | x8 |[M:3/4] B,,6 |] %18

